X: 1
T:Constant Billy, Longborough 1
M:6/8
L:1/8
S:CJS (MSS)
A:Longborough
P:A(AB2)5A
K:G
P:A
|:D2d BAB|c2A AGA|B2G E2G|DEF G2:|
P:B
  Bcd e2c|ABc d3 |Bcd e2c|ABc  d3|
  D2d BAB|c2A AGA|B2G E2G|DEF G2 ||
